packages/core/src/svgs/tokens/branded/PXP.svg

<svg width="24" height="24" viewBox="0 0 24 24" fill="none" xmlns="http://www.w3.org/2000/svg">
<path d="M13.25 2H10.7499V3.87499H5.125V6.37499H6.37499V19.5H5.125V22H10.1249V19.5H8.87497V15.125H10.7499V17H13.25V15.125C16.3625 15.0999 18.8749 12.575 18.8749 9.49994C18.8667 8.01066 18.2714 6.58469 17.2184 5.53158C16.1653 4.47846 14.7392 3.8832 13.25 3.87499V2ZM8.87497 12.625V6.37499H13.2188C13.6313 6.37251 14.0402 6.45143 14.4223 6.60721C14.8042 6.763 15.1518 6.9926 15.445 7.28287C15.7382 7.57313 15.9712 7.91836 16.1307 8.2988C16.2903 8.67925 16.3733 9.08737 16.375 9.49994C16.375 11.225 14.9625 12.625 13.2188 12.625H8.87497Z" fill="url(#paint0_linear_364_1607)"/>
<defs>
<linearGradient id="paint0_linear_364_1607" x1="12" y1="2" x2="12" y2="22" gradientUnits="userSpaceOnUse">
<stop stop-color="#5BC5F7"/>
<stop offset="1" stop-color="#057EFF"/>
</linearGradient>
</defs>
</svg>

<svg xmlns="http://www.w3.org/2000/svg" width="24" height="24" fill="none" viewBox="0 0 24 24">
    <path fill="url(#PXP__a)" d="M13.25 2h-2.5v1.875H5.125v2.5h1.25V19.5h-1.25V22h5v-2.5h-1.25v-4.375h1.875V17h2.5v-1.875c3.113-.025 5.625-2.55 5.625-5.625a5.657 5.657 0 0 0-5.625-5.625zM8.875 12.625v-6.25h4.344A3.14 3.14 0 0 1 16.375 9.5c0 1.725-1.412 3.125-3.156 3.125z"/>
    <defs>
        <linearGradient id="PXP__a" x1="12" x2="12" y1="2" y2="22" gradientUnits="userSpaceOnUse">
            <stop stop-color="#5BC5F7"/>
            <stop offset="1" stop-color="#057EFF"/>
        </linearGradient>
    </defs>
</svg>
